assets/svg/web-logo.svg

<svg fill="none" height="30" viewBox="0 0 161 30" width="161" xmlns="http://www.w3.org/2000/svg" xmlns:xlink="http://www.w3.org/1999/xlink"><clipPath id="a"><path d="m0 0h160.653v30h-160.653z"/></clipPath><g clip-path="url(#a)" fill="#000"><path d="m6.07438 28.4507-5.900826-17.5414c-.057852-.2479-.173554-.5578-.173554-.8677 0-.74384.578512-1.48764 1.44628-1.48764.75207 0 1.21488.49586 1.44628 1.30165l4.91736 15.55789 4.91738-15.61988c.2314-.7438.6942-1.23966 1.4463-1.23966h.1735c.8099 0 1.2727.49586 1.5041 1.23966l4.8017 15.61988 4.9752-15.68186c.1736-.61983.5785-1.17768 1.3884-1.17768s1.4463.68181 1.4463 1.42562c0 .30992-.1157.61982-.1735.86772l-5.9587 17.6034c-.2893.9297-.9256 1.4256-1.562 1.4256h-.1157c-.7521 0-1.3306-.4959-1.562-1.4256l-4.8595-15.124-4.8595 15.124c-.28926.9297-.80992 1.4256-1.56198 1.4256h-.05785c-.75207 0-1.38843-.4959-1.67769-1.4256z"/><path d="m40.0332 30.0002c-5.3223 0-9.6611-4.4009-9.6611-10.7852v-.062c0-6.0124 3.9339-10.78508 9.314-10.78508 5.7273 0 9.0248 5.02068 9.0248 10.53718 0 .8678-.6363 1.4256-1.3306 1.4256h-14.0578c.4049 4.5248 3.3554 7.0042 6.8264 7.0042 2.3719 0 4.1653-.9918 5.6116-2.4174.2314-.1859.4628-.3719.8099-.3719.6942 0 1.2727.6198 1.2727 1.3017 0 .3719-.1735.7438-.4628.9917-1.8512 1.9215-4.0496 3.1612-7.3471 3.1612zm5.7273-12.0248c-.2893-3.781-2.314-7.0662-6.1901-7.0662-3.3554 0-5.9008 3.0372-6.3058 7.0662z"/><path d="m52.4707 1.54959c0-.867772.6364-1.54959 1.4463-1.54959s1.4463.681818 1.4463 1.54959v11.34301c1.5619-2.4794 3.876-4.6488 7.4049-4.6488 4.6281 0 9.2562 3.9669 9.2562 10.7851v.062c0 6.8182-4.5702 10.7851-9.2562 10.7851-3.5868 0-5.9008-2.1074-7.4049-4.4008v2.6033c0 .8678-.5785 1.5496-1.4463 1.5496-.8099 0-1.4463-.7438-1.4463-1.5496zm16.6033 17.66531v-.062c0-4.8967-3.124-8.0579-6.8264-8.0579-3.5868 0-7 3.2852-7 7.9959v.062c0 4.8347 3.4132 8.0578 7 8.0578 3.7603 0 6.8264-2.9752 6.8264-7.9958z"/><path d="m80.8184 19.215v-.062c0-5.8884 4.2809-10.84709 9.9504-10.84709 3.2396 0 5.3801 1.30165 7.1156 3.03719.2315.1859.4629.6198.4629 1.0537 0 .8678-.6364 1.4876-1.3885 1.4876-.3471 0-.6942-.1859-.9256-.3719-1.3884-1.3636-2.9504-2.4793-5.2644-2.4793-3.9339 0-6.9422 3.595-6.9422 8.0578v.062c0 4.5248 3.0661 8.0579 7.1157 8.0579 2.1984 0 3.9917-1.1157 5.3802-2.5414.1735-.1859.4628-.3719.8099-.3719.6942 0 1.3306.6819 1.3306 1.4257 0 .3719-.1736.7438-.3471.9917-1.8513 1.9835-4.0496 3.3471-7.2893 3.3471-5.7273-.062-10.0082-5.0207-10.0082-10.8471z"/><path d="m100.95 19.215v-.062c0-5.8884 4.281-10.84709 10.124-10.84709 5.785 0 10.066 4.89669 10.066 10.78509v.062c0 5.8884-4.339 10.8471-10.182 10.8471-5.785 0-10.008-4.8967-10.008-10.7851zm17.24 0v-.062c0-4.4628-3.124-8.1198-7.174-8.1198-4.223 0-7.115 3.657-7.115 8.0578v.062c0 4.4628 3.066 8.0579 7.173 8.0579 4.165 0 7.116-3.5951 7.116-7.9959z"/><path d="m124.843 10.1036c0-.86772.636-1.54954 1.446-1.54954s1.446.68182 1.446 1.54954v2.1075c1.273-2.0455 3.009-3.96696 6.248-3.96696 3.124 0 5.149 1.79756 6.248 4.15286 1.389-2.2934 3.471-4.15286 6.827-4.15286 4.454 0 7.173 3.22316 7.173 8.36776v11.5909c0 .8678-.636 1.5496-1.446 1.5496s-1.446-.6818-1.446-1.5496v-10.7851c0-4.0289-1.852-6.2603-5.033-6.2603-2.951 0-5.323 2.3553-5.323 6.4462v10.7232c0 .8678-.636 1.5496-1.446 1.5496s-1.446-.6818-1.446-1.5496v-11.0331c0-3.9049-1.909-6.1983-4.975-6.1983-3.067 0-5.381 2.7273-5.381 6.5702v10.5992c0 .8678-.578 1.5496-1.446 1.5496-.81 0-1.446-.6818-1.446-1.5496z"/><path d="m76.4794 29.8138c1.1821 0 2.1405-1.0268 2.1405-2.2934s-.9584-2.2933-2.1405-2.2933c-1.1822 0-2.1405 1.0267-2.1405 2.2933s.9583 2.2934 2.1405 2.2934z"/><path d="m156.372 10.5993c0-.4339.116-.80579.289-1.11571.174-.30991.463-.61983.81-.86776.347-.18595.694-.30992 1.099-.30992s.753.12397 1.042.30992.578.49586.81.86776c.173.3719.289.74381.289 1.17771 0 .3719-.116.8058-.289 1.1157-.174.3099-.463.6198-.752.8678-.347.1859-.695.3099-1.1.3099s-.752-.124-1.099-.3099c-.347-.186-.578-.4959-.752-.8678-.231-.4339-.347-.8058-.347-1.1777zm.347 0c0 .3719.058.6818.232.9917.173.3099.405.5579.694.7438.289.186.578.248.925.248.348 0 .637-.062.926-.248.289-.1859.521-.4339.694-.7438.174-.3099.232-.6198.232-.9917s-.058-.68182-.232-.99174c-.173-.30992-.405-.55785-.694-.7438s-.578-.24793-.926-.24793c-.347 0-.636.06198-.925.24793s-.521.43388-.694.7438c-.174.30992-.232.61984-.232.99174zm2.661-.5579c0 .186-.057.31-.115.4339-.058.124-.174.248-.347.248l.694 1.1776h-.463l-.579-1.0537h-.405v1.0537h-.404v-2.72722h.752c.289 0 .52.06198.694.18595.173.12396.173.3719.173.68177zm-1.215.4339h.29c.173 0 .289-.062.347-.1239.116-.062.116-.186.116-.31 0-.12392-.058-.24789-.116-.30987-.058-.06199-.232-.12397-.405-.12397h-.289v.86774z"/></g></svg>

<svg width="161" height="30" viewBox="0 0 161 30" fill="none" xmlns="http://www.w3.org/2000/svg">
<g clip-path="url(#clip0)">
<path d="M6.07438 28.4507L0.173554 10.9093C0.115702 10.6614 0 10.3515 0 10.0416C0 9.29776 0.578512 8.55396 1.44628 8.55396C2.19835 8.55396 2.66116 9.04982 2.89256 9.85561L7.80992 25.4135L12.7273 9.79362C12.9587 9.04982 13.4215 8.55396 14.1736 8.55396H14.3471C15.157 8.55396 15.6198 9.04982 15.8512 9.79362L20.6529 25.4135L25.6281 9.73164C25.8017 9.11181 26.2066 8.55396 27.0165 8.55396C27.8264 8.55396 28.4628 9.23577 28.4628 9.97958C28.4628 10.2895 28.3471 10.5994 28.2893 10.8473L22.3306 28.4507C22.0413 29.3804 21.405 29.8763 20.7686 29.8763H20.6529C19.9008 29.8763 19.3223 29.3804 19.0909 28.4507L14.2314 13.3267L9.3719 28.4507C9.08264 29.3804 8.56198 29.8763 7.80992 29.8763H7.75207C7 29.8763 6.36364 29.3804 6.07438 28.4507Z" fill="black"/>
<path d="M40.0332 30.0002C34.7109 30.0002 30.3721 25.5993 30.3721 19.215V19.153C30.3721 13.1406 34.306 8.36792 39.6861 8.36792C45.4134 8.36792 48.7109 13.3886 48.7109 18.9051C48.7109 19.7729 48.0746 20.3307 47.3803 20.3307H33.3225C33.7274 24.8555 36.6779 27.3349 40.1489 27.3349C42.5208 27.3349 44.3142 26.3431 45.7605 24.9175C45.9919 24.7316 46.2233 24.5456 46.5704 24.5456C47.2646 24.5456 47.8431 25.1654 47.8431 25.8473C47.8431 26.2192 47.6696 26.5911 47.3803 26.839C45.5291 28.7605 43.3307 30.0002 40.0332 30.0002ZM45.7605 17.9754C45.4712 14.1944 43.4465 10.9092 39.5704 10.9092C36.215 10.9092 33.6696 13.9464 33.2646 17.9754H45.7605Z" fill="black"/>
<path d="M52.4707 1.54959C52.4707 0.681818 53.1071 0 53.917 0C54.7269 0 55.3633 0.681818 55.3633 1.54959V12.8926C56.9252 10.4132 59.2393 8.2438 62.7682 8.2438C67.3963 8.2438 72.0244 12.2107 72.0244 19.0289V19.0909C72.0244 25.9091 67.4542 29.876 62.7682 29.876C59.1814 29.876 56.8674 27.7686 55.3633 25.4752V28.0785C55.3633 28.9463 54.7848 29.6281 53.917 29.6281C53.1071 29.6281 52.4707 28.8843 52.4707 28.0785V1.54959ZM69.074 19.2149V19.1529C69.074 14.2562 65.95 11.095 62.2476 11.095C58.6608 11.095 55.2476 14.3802 55.2476 19.0909V19.1529C55.2476 23.9876 58.6608 27.2107 62.2476 27.2107C66.0079 27.2107 69.074 24.2355 69.074 19.2149Z" fill="black"/>
<path d="M80.8184 19.215V19.153C80.8184 13.2646 85.0993 8.30591 90.7688 8.30591C94.0084 8.30591 96.1489 9.60756 97.8844 11.3431C98.1159 11.529 98.3473 11.9629 98.3473 12.3968C98.3473 13.2646 97.7109 13.8844 96.9588 13.8844C96.6117 13.8844 96.2646 13.6985 96.0332 13.5125C94.6448 12.1489 93.0828 11.0332 90.7688 11.0332C86.8349 11.0332 83.8266 14.6282 83.8266 19.091V19.153C83.8266 23.6778 86.8927 27.2109 90.9423 27.2109C93.1407 27.2109 94.934 26.0952 96.3225 24.6695C96.496 24.4836 96.7853 24.2976 97.1324 24.2976C97.8266 24.2976 98.463 24.9795 98.463 25.7233C98.463 26.0952 98.2894 26.4671 98.1159 26.715C96.2646 28.6985 94.0663 30.0621 90.8266 30.0621C85.0993 30.0001 80.8184 25.0414 80.8184 19.215Z" fill="black"/>
<path d="M100.95 19.215V19.153C100.95 13.2646 105.231 8.30591 111.074 8.30591C116.859 8.30591 121.14 13.2026 121.14 19.091V19.153C121.14 25.0414 116.801 30.0001 110.958 30.0001C105.173 30.0001 100.95 25.1034 100.95 19.215ZM118.19 19.215V19.153C118.19 14.6902 115.066 11.0332 111.016 11.0332C106.793 11.0332 103.901 14.6902 103.901 19.091V19.153C103.901 23.6158 106.967 27.2109 111.074 27.2109C115.239 27.2109 118.19 23.6158 118.19 19.215Z" fill="black"/>
<path d="M124.843 10.1036C124.843 9.23588 125.479 8.55406 126.289 8.55406C127.099 8.55406 127.735 9.23588 127.735 10.1036V12.2111C129.008 10.1656 130.744 8.24414 133.983 8.24414C137.107 8.24414 139.132 10.0417 140.231 12.397C141.62 10.1036 143.702 8.24414 147.058 8.24414C151.512 8.24414 154.231 11.4673 154.231 16.6119V28.2028C154.231 29.0706 153.595 29.7524 152.785 29.7524C151.975 29.7524 151.339 29.0706 151.339 28.2028V17.4177C151.339 13.3888 149.487 11.1574 146.306 11.1574C143.355 11.1574 140.983 13.5127 140.983 17.6036V28.3268C140.983 29.1946 140.347 29.8764 139.537 29.8764C138.727 29.8764 138.091 29.1946 138.091 28.3268V17.2937C138.091 13.3888 136.182 11.0954 133.116 11.0954C130.049 11.0954 127.735 13.8227 127.735 17.6656V28.2648C127.735 29.1326 127.157 29.8144 126.289 29.8144C125.479 29.8144 124.843 29.1326 124.843 28.2648V10.1036Z" fill="black"/>
<path d="M76.4794 29.8138C77.6615 29.8138 78.6199 28.787 78.6199 27.5204C78.6199 26.2538 77.6615 25.2271 76.4794 25.2271C75.2972 25.2271 74.3389 26.2538 74.3389 27.5204C74.3389 28.787 75.2972 29.8138 76.4794 29.8138Z" fill="black"/>
<path d="M156.372 10.5993C156.372 10.1654 156.488 9.79351 156.661 9.48359C156.835 9.17368 157.124 8.86376 157.471 8.61583C157.818 8.42988 158.165 8.30591 158.57 8.30591C158.975 8.30591 159.323 8.42988 159.612 8.61583C159.901 8.80178 160.19 9.11169 160.422 9.48359C160.595 9.85549 160.711 10.2274 160.711 10.6613C160.711 11.0332 160.595 11.4671 160.422 11.777C160.248 12.0869 159.959 12.3968 159.67 12.6448C159.323 12.8307 158.975 12.9547 158.57 12.9547C158.165 12.9547 157.818 12.8307 157.471 12.6448C157.124 12.4588 156.893 12.1489 156.719 11.777C156.488 11.3431 156.372 10.9712 156.372 10.5993ZM156.719 10.5993C156.719 10.9712 156.777 11.2811 156.951 11.591C157.124 11.9009 157.356 12.1489 157.645 12.3348C157.934 12.5208 158.223 12.5828 158.57 12.5828C158.918 12.5828 159.207 12.5208 159.496 12.3348C159.785 12.1489 160.017 11.9009 160.19 11.591C160.364 11.2811 160.422 10.9712 160.422 10.5993C160.422 10.2274 160.364 9.91748 160.19 9.60756C160.017 9.29764 159.785 9.04971 159.496 8.86376C159.207 8.67781 158.918 8.61583 158.57 8.61583C158.223 8.61583 157.934 8.67781 157.645 8.86376C157.356 9.04971 157.124 9.29764 156.951 9.60756C156.777 9.91748 156.719 10.2274 156.719 10.5993ZM159.38 10.0414C159.38 10.2274 159.323 10.3514 159.265 10.4753C159.207 10.5993 159.091 10.7233 158.918 10.7233L159.612 11.9009H159.149L158.57 10.8472H158.165V11.9009H157.761V9.17368H158.513C158.802 9.17368 159.033 9.23566 159.207 9.35963C159.38 9.48359 159.38 9.73153 159.38 10.0414ZM158.165 10.4753H158.455C158.628 10.4753 158.744 10.4133 158.802 10.3514C158.918 10.2894 158.918 10.1654 158.918 10.0414C158.918 9.91748 158.86 9.79351 158.802 9.73153C158.744 9.66954 158.57 9.60756 158.397 9.60756H158.108V10.4753H158.165Z" fill="black"/>
</g>
<defs>
<clipPath id="clip0">
<rect width="160.653" height="30" fill="white"/>
</clipPath>
</defs>
</svg>
